X: 1
T: Con Cassidy's
M: 6/8
L: 1/8
R: jig
K: Gmaj
BAB cBc|dgg d2g|fed cAF|Ggg d2c|
BAB cBc|dgg d2g|fed cAF|1 ~G3 G2A:|2 ~G3 G2d||
|:gGG fGG|efg d2c|BA^G Aag|fe^d efg|
azf gfe|fed fga|gfe def|1 gGG G2d:|2 gGG G2A||
